X: 3815
T: Black Cat, The
R: jig
M: 6/8
K: Eminor
|:"Em"e3 EFG|"Bm"B3 F2G|"Am"A3 AGF|"Em"EFG B2G|
"Em"e3 EFG|"Bm"B2c F2G|"Am"A3 AGF|AFG "Em"E2d:|
|:"Em"e2f g3|"B7"fdB Bfg|"Am"a3 agf|efg "Fm"a2f|
"Em"e2f g3|"B"fdB B2G|"Am"A3 AGF|AFG"Em"E2d:|

